X: 9926
T: Deuks Dang Ower My Daddy
R: jig
M: 6/8
K: Dmajor
|:f/e/|d2A FED|EFE cBc|d2A F2E|FDD D2:|
c|dcd Bcd|efd cBA|dcd efg|fdd def|
gfg Bcd|efd cBA|d2A F2E|FDD D2||
F|FBB B2c|dcB fdB|FBB B2d|cBA edc|
fed edc|dcB AGF|EFG FEC|DB,B, B,2||

